Sources/FrostedUI/Resources/Icons.xcassets/sealCheckmarkFilled12.imageset/seal-checkmark-filled-12.svg

<svg width="12" height="12" viewBox="0 0 12 12" fill="none" xmlns="http://www.w3.org/2000/svg" data-fui-icon="true">
  <g clip-path="url(#clip0_2948_56)">
    <path
      d="M6.00293 -0.00585938C6.55797 -0.00571574 7.05236 0.247184 7.38184 0.642578C7.55529 0.85075 7.76236 1.03887 8.0127 1.14258C8.26354 1.24647 8.54116 1.2574 8.81152 1.23242C9.32498 1.18512 9.85483 1.35693 10.248 1.75C10.6409 2.14297 10.8119 2.67242 10.7646 3.18555C10.7397 3.4563 10.751 3.73433 10.8555 3.98535C10.9593 4.23481 11.1472 4.44095 11.3545 4.61426C11.7491 4.94401 12.0009 5.43874 12.001 5.99316C12.0008 6.54653 11.7498 7.04064 11.3564 7.37012C11.1487 7.54421 10.9596 7.75073 10.8555 8.00098C10.7506 8.25292 10.7407 8.53196 10.7656 8.80371C10.8127 9.31661 10.6406 9.84532 10.248 10.2383C9.85477 10.6316 9.32508 10.8041 8.81152 10.7568C8.54042 10.7319 8.2622 10.7424 8.01074 10.8467C7.76069 10.9505 7.55373 11.1391 7.37988 11.3467C7.05041 11.7402 6.55647 11.9911 6.00293 11.9912C5.44627 11.9912 4.94994 11.738 4.62012 11.3408C4.44893 11.1347 4.24458 10.9484 3.99707 10.8457C3.74842 10.7426 3.47305 10.7315 3.20508 10.7568C2.6903 10.8054 2.15901 10.6333 1.76465 10.2393C1.37185 9.84633 1.1986 9.31698 1.24512 8.80371C1.26961 8.53323 1.25938 8.25572 1.15527 8.00488C1.05115 7.75406 0.861094 7.54774 0.652344 7.37402C0.256408 7.04455 0.00405 6.54865 0.00390625 5.99316C0.00403122 5.4361 0.257574 4.93834 0.655273 4.6084C0.863026 4.43601 1.05142 4.23063 1.15527 3.98145C1.25912 3.73215 1.27076 3.45644 1.24609 3.1875C1.19897 2.6737 1.37127 2.14339 1.76465 1.75C2.15921 1.35575 2.69106 1.18372 3.20605 1.23242C3.4728 1.25766 3.74659 1.24702 3.99414 1.14453C4.24154 1.04206 4.44563 0.854859 4.61621 0.648438C4.94623 0.249239 5.44457 -0.00585938 6.00293 -0.00585938ZM8.40918 3.96777C8.11643 3.67503 7.64156 3.67532 7.34863 3.96777L4.87891 6.4375L4.28418 5.84277C3.99143 5.55003 3.51656 5.55032 3.22363 5.84277C2.93074 6.13567 2.93074 6.61043 3.22363 6.90332L4.34863 8.02832C4.64153 8.32117 5.1163 8.3212 5.40918 8.02832L8.40918 5.02832C8.70162 4.73541 8.70188 4.26052 8.40918 3.96777Z"
      fill="currentColor"
    />
  </g>
  <defs>
    <clipPath id="clip0_2948_56"><path fill="currentColor" d="M0 0H12V12H0z" /></clipPath>
  </defs>
</svg>

<svg xmlns="http://www.w3.org/2000/svg" width="12" height="12" fill="none" data-fui-icon="true" viewBox="0 0 12 12"><g clip-path="url(#a)"><path fill="currentColor" d="M6.003-.006c.555 0 1.05.253 1.379.649.173.208.38.396.63.5.252.103.53.114.8.09a1.793 1.793 0 0 1 1.953 1.953c-.025.27-.014.548.09.8.104.249.292.455.5.628a1.793 1.793 0 0 1 .001 2.756c-.207.174-.396.38-.5.631-.105.252-.115.531-.09.803a1.792 1.792 0 0 1-1.954 1.953c-.272-.025-.55-.015-.801.09-.25.104-.457.292-.631.5a1.79 1.79 0 0 1-2.76-.006c-.171-.206-.375-.393-.623-.495-.249-.103-.524-.114-.792-.09a1.796 1.796 0 0 1-1.96-1.953c.025-.27.014-.547-.09-.798-.104-.25-.294-.457-.503-.631a1.795 1.795 0 0 1 .003-2.766c.208-.172.396-.377.5-.627.104-.249.116-.525.091-.793a1.795 1.795 0 0 1 1.96-1.956c.267.026.54.015.788-.087.248-.103.452-.29.622-.497.33-.399.829-.654 1.387-.654m2.406 3.974a.75.75 0 0 0-1.06 0l-2.47 2.47-.595-.595a.75.75 0 0 0-1.06 1.06l1.125 1.125a.75.75 0 0 0 1.06 0l3-3a.75.75 0 0 0 0-1.06"/></g><defs><clipPath id="a"><path fill="currentColor" d="M0 0h12v12H0z"/></clipPath></defs></svg>
